X:1
T:My Lord, I Did Not Choose You
T:Text: Josiah Conder, 1836, alt. Tune: Greek; adapt. in A Sullivan's Church Hymns, 1874
T:76 76 D CALCUTTA www.hymnary.org/text/tis_not_that_i_did_choose_thee
T:My Lord, I Did Not Choose You
T:This hymn is in the public domain. You may freely use this score for personal and congregational worship. If you reproduce the score, please credit Hymnary.org as the source. 
T:This hymn is in the public domain. You may freely use this score for personal and congregational worship. If you reproduce the score, please credit Hymnary.org as the source. 
Z:This hymn is in the public domain. You may freely use this score for personal and congregational worship. If you reproduce the score, please credit Hymnary.org as the source.
%%score ( 1 2 ) ( 3 4 )
L:1/8
M:4/4
K:Eb
V:1 treble nm="SOPRANO ALTO" snm="S. A."
V:2 treble 
V:3 bass nm="TENOR BASS" snm="T. B."
V:4 bass 
V:1
"^1""^2" EF | G2 G2 G2 G2 | G4 E2 E2 | F2 F2 D2 D2 | E6 | EF | G2 G2 G2 G2 | G4 E2 E2 | %8
w: My *|Lord, I did not|choose you, for|that could nev- er|be;|my *|heart would still re-|fuse you, had|
w: Un- *|less your grace had|called me and|taught my o- pening|mind,|the *|world would have en-|thralled me, tho|
 F2 F2 D2 D2 | E6 | B2 | e2 e2 d2 c2 | B4 G2 G2 | A2 BA G2 AG | F6 |1 GA | B2 B2 B2 B2 | %17
w: you not cho- sen|me.|You|took the sin that|stained me, you|cleansed me, * made me *|new;|of *|old you have or-|
w: heav- enly glo- ries|blind.|My|heart knows none a-|bove you; for|your rich * grace I *|thirst.|I *|know that if I|
 (c2 d2) e2 c2 | B2 A2 G2 F2 | E6 x2 |] %20
w: dained _ me, that|I should live in|you.|
w: love * you, you|must have loved me|first.|
V:2
 E2 | E2 E2 E2 E2 | E4 C2 C2 | C2 C2 B,2 B,2 | B,6 | E2 | E2 E2 E2 E2 | E4 C2 C2 | C2 C2 B,2 B,2 | %9
 B,6 | D2 | E2 E2 E2 E2 | E4 E2 E2 | F2 F2 E2 FE | D6 |1 E2 | E2 E2 D2 E2 | E4 A2 E2 | %18
 E2 E2 D2 D2 | B,6 x2 |] %20
V:3
 G,A, | B,2 B,2 B,2 B,2 | C4 G,2 G,2 | A,2 A,2 F,2 F,2 | G,6 | G,A, | B,2 B,2 B,2 B,2 | %7
 C4 G,2 G,2 | A,2 A,2 F,2 F,2 | G,6 | A,2 | B,2 B,2 B,2 A,2 | G,4 B,2 C2 | C2 B,2 B,2 B,2 | B,6 |1 %15
 B,A, | G,2 G,2 A,2 B,2 | (A,2 B,2) C2 A,2 | G,2 C2 B,2 A,2 | G,6 x2 |] %20
V:4
 E,2 | E,2 E,2 E,2 D,2 | C,4 C,2 B,,2 | A,,2 A,,2 B,,2 B,,2 | E,6 | E,2 | E,2 E,2 E,2 D,2 | %7
 C,4 C,2 B,,2 | A,,2 A,,2 B,,2 B,,2 | E,6 | F,2 | G,2 G,2 A,2 A,2 | E,4 E,2 C,2 | F,2 D,2 E,2 E,2 | %14
 B,,6 |1 E,2 | E,2 E,2 F,2 G,2 | A,4 A,,2 A,,2 | B,,2 B,,2 B,,2 B,,2 | E,6 x2 |] %20

